apps/web/public/images/spinner.svg

<svg width="16" height="16" viewBox="0 0 16 16" fill="none" xmlns="http://www.w3.org/2000/svg">
    <mask id="mask0_2291_186" style="mask-type:alpha" maskUnits="userSpaceOnUse" x="0" y="0" width="16" height="16">
        <rect width="16" height="16" fill="#D9D9D9"/>
    </mask>
    <g mask="url(#mask0_2291_186)">
        <path d="M8.00016 14.6666C7.08905 14.6666 6.22794 14.4916 5.41683 14.1416C4.60572 13.7916 3.89738 13.3139 3.29183 12.7083C2.68627 12.1028 2.2085 11.3944 1.8585 10.5833C1.5085 9.7722 1.3335 8.91109 1.3335 7.99998C1.3335 7.07776 1.5085 6.21387 1.8585 5.40831C2.2085 4.60276 2.68627 3.8972 3.29183 3.29165C3.89738 2.68609 4.60572 2.20831 5.41683 1.85831C6.22794 1.50831 7.08905 1.33331 8.00016 1.33331C8.18905 1.33331 8.34738 1.3972 8.47516 1.52498C8.60294 1.65276 8.66683 1.81109 8.66683 1.99998C8.66683 2.18887 8.60294 2.3472 8.47516 2.47498C8.34738 2.60276 8.18905 2.66665 8.00016 2.66665C6.52238 2.66665 5.26405 3.18609 4.22516 4.22498C3.18627 5.26387 2.66683 6.5222 2.66683 7.99998C2.66683 9.47776 3.18627 10.7361 4.22516 11.775C5.26405 12.8139 6.52238 13.3333 8.00016 13.3333C9.47794 13.3333 10.7363 12.8139 11.7752 11.775C12.8141 10.7361 13.3335 9.47776 13.3335 7.99998C13.3335 7.81109 13.3974 7.65276 13.5252 7.52498C13.6529 7.3972 13.8113 7.33331 14.0002 7.33331C14.1891 7.33331 14.3474 7.3972 14.4752 7.52498C14.6029 7.65276 14.6668 7.81109 14.6668 7.99998C14.6668 8.91109 14.4918 9.7722 14.1418 10.5833C13.7918 11.3944 13.3141 12.1028 12.7085 12.7083C12.1029 13.3139 11.3974 13.7916 10.5918 14.1416C9.78627 14.4916 8.92238 14.6666 8.00016 14.6666Z" fill="#1C1B1F"/>
    </g>
</svg>

<svg width="16" height="16" viewBox="0 0 16 16" fill="none" xmlns="http://www.w3.org/2000/svg"><mask id="a" style="mask-type:alpha" maskUnits="userSpaceOnUse" x="0" y="0" width="16" height="16"><path fill="#D9D9D9" d="M0 0h16v16H0z"/></mask><g mask="url(#a)"><path d="M8 14.667a6.45 6.45 0 0 1-2.583-.525 6.8 6.8 0 0 1-2.125-1.434 6.8 6.8 0 0 1-1.433-2.125A6.45 6.45 0 0 1 1.333 8q0-1.383.526-2.592a6.8 6.8 0 0 1 1.433-2.116 6.8 6.8 0 0 1 2.125-1.434A6.45 6.45 0 0 1 8 1.333q.283 0 .475.192A.65.65 0 0 1 8.667 2a.65.65 0 0 1-.192.475.65.65 0 0 1-.475.192q-2.217 0-3.775 1.558T2.667 8t1.558 3.775T8 13.333t3.775-1.558q1.56-1.558 1.559-3.775 0-.283.191-.475A.65.65 0 0 1 14 7.333q.284 0 .475.192a.65.65 0 0 1 .192.475 6.45 6.45 0 0 1-.525 2.583 6.8 6.8 0 0 1-1.433 2.125 6.8 6.8 0 0 1-2.117 1.434q-1.209.525-2.592.525" fill="#1C1B1F"/></g></svg>
